assets/images/platforms/linux-server.svg

<svg clip-rule="evenodd" fill-rule="evenodd" stroke-linejoin="round" stroke-miterlimit="2" viewBox="0 0 32 30" xmlns="http://www.w3.org/2000/svg"><path d="m128 1408h1024v-128h-1024zm0-512h1024v-128h-1024zm1568 448c0-52.66-43.34-96-96-96s-96 43.34-96 96 43.34 96 96 96 96-43.34 96-96zm-1568-960h1024v-128h-1024zm1568 448c0-52.664-43.34-96-96-96s-96 43.336-96 96 43.34 96 96 96 96-43.336 96-96zm0-512c0-52.664-43.34-96-96-96s-96 43.336-96 96 43.34 96 96 96 96-43.336 96-96zm96 832v384h-1792v-384zm0-512v384h-1792v-384zm0-512v384h-1792v-384z" fill-rule="nonzero" transform="scale(.0178571)"/></svg>

<svg clip-rule="evenodd" fill-rule="evenodd" stroke-linejoin="round" stroke-miterlimit="2" viewBox="0 0 32 30" xmlns="http://www.w3.org/2000/svg"><path d="m128 1408h1024v-128H128zm0-512h1024V768H128zm1568 448c0-52.66-43.34-96-96-96s-96 43.34-96 96 43.34 96 96 96 96-43.34 96-96zM128 384h1024V256H128zm1568 448c0-52.664-43.34-96-96-96s-96 43.336-96 96 43.34 96 96 96 96-43.336 96-96zm0-512c0-52.664-43.34-96-96-96s-96 43.336-96 96 43.34 96 96 96 96-43.336 96-96zm96 832v384H0v-384zm0-512v384H0V640zm0-512v384H0V128z" fill-rule="nonzero" transform="scale(.0178571)"/></svg>
